Sweet-Rainbow/icons/ferdi.svg

<?xml version="1.0" encoding="UTF-8" standalone="no"?>
<!-- Generator: Gravit.io -->

<svg
   xmlns:dc="http://purl.org/dc/elements/1.1/"
   xmlns:cc="http://creativecommons.org/ns#"
   xmlns:rdf="http://www.w3.org/1999/02/22-rdf-syntax-ns#"
   xmlns:svg="http://www.w3.org/2000/svg"
   xmlns="http://www.w3.org/2000/svg"
   xmlns:sodipodi="http://sodipodi.sourceforge.net/DTD/sodipodi-0.dtd"
   xmlns:inkscape="http://www.inkscape.org/namespaces/inkscape"
   style="isolation:isolate"
   viewBox="0 0 36 36"
   width="48"
   height="48"
   version="1.1"
   id="svg9"
   sodipodi:docname="ferdi.svg"
   inkscape:version="0.92.4 (5da689c313, 2019-01-14)">
  <metadata
     id="metadata15">
    <rdf:RDF>
      <cc:Work
         rdf:about="">
        <dc:format>image/svg+xml</dc:format>
        <dc:type
           rdf:resource="http://purl.org/dc/dcmitype/StillImage" />
        <dc:title></dc:title>
      </cc:Work>
    </rdf:RDF>
  </metadata>
  <defs
     id="defs13" />
  <sodipodi:namedview
     pagecolor="#ffffff"
     bordercolor="#666666"
     borderopacity="1"
     objecttolerance="10"
     gridtolerance="10"
     guidetolerance="10"
     inkscape:pageopacity="0"
     inkscape:pageshadow="2"
     inkscape:window-width="640"
     inkscape:window-height="480"
     id="namedview11"
     showgrid="false"
     inkscape:zoom="29.365243"
     inkscape:cx="25.325443"
     inkscape:cy="32"
     inkscape:current-layer="svg9"
     units="px" />
  <linearGradient
     id="_lgradient_12"
     x1="0.97408402"
     y1="0.44924641"
     x2="-0.060099464"
     y2="0.49890792"
     gradientTransform="matrix(47.058,0,0,46.985,0.495,0.559)"
     gradientUnits="userSpaceOnUse">
    <stop
       offset="0%"
       stop-opacity="1"
       style="stop-color:rgb(88,0,226)"
       id="stop2" />
    <stop
       offset="100%"
       stop-opacity="1"
       style="stop-color:rgb(255,0,230)"
       id="stop4" />
  </linearGradient>
  <g
     id="g826"
     transform="matrix(0.76501466,0,0,0.76501466,-0.37870239,-0.39981223)">
    <path
       id="path7"
       d="m 22.417,4.831 v 0 C 23.591,4.732 24.466,3.696 24.37,2.519 v 0 C 24.273,1.342 23.237,0.467 22.058,0.567 v 0 C 16.148,1.059 10.632,3.772 6.629,8.161 2.636,12.55 0.442,18.292 0.496,24.227 c 0.056,6.235 2.592,12.202 7.038,16.579 4.456,4.366 10.468,6.793 16.703,6.737 6.235,-0.057 12.201,-2.592 16.578,-7.038 4.366,-4.457 6.793,-10.468 6.737,-16.703 v 0 c -0.011,-1.181 -0.978,-2.13 -2.158,-2.12 v 0 c -1.181,0.011 -2.131,0.978 -2.12,2.159 v 0 c 0.046,5.101 -1.941,10.017 -5.513,13.665 -3.582,3.636 -8.462,5.713 -13.563,5.759 C 19.097,43.311 14.18,41.323 10.533,37.752 6.896,34.17 4.82,29.29 4.774,24.189 4.73,19.333 6.516,14.633 9.789,11.041 13.061,7.45 17.576,5.238 22.417,4.831 Z M 40.99,14.909 v 0 c 0.558,1.04 1.856,1.431 2.896,0.872 v 0 c 1.039,-0.558 1.43,-1.856 0.872,-2.895 v 0 C 42.376,8.458 38.632,4.898 34.088,2.747 v 0 C 33.021,2.237 31.743,2.689 31.237,3.756 v 0 c -0.507,1.068 -0.052,2.348 1.015,2.858 v 0 c 3.727,1.763 6.78,4.666 8.738,8.295 z m -12.286,-0.57 c -0.584,-0.021 -1.252,0.211 -2.282,0.598 -1.094,0.411 -2.218,0.746 -2.498,0.746 -0.282,-10e-4 -1.146,-0.268 -1.925,-0.598 -1.937,-0.825 -2.712,-0.935 -3.504,-0.497 -0.351,0.194 -1.653,1.414 -2.898,2.708 -1.891,1.966 -2.447,2.423 -3.382,2.796 -1.47,0.589 -2.709,0.731 -3.727,0.426 -1.382,-0.414 -2.127,0.362 -1.533,1.592 0.566,1.172 2.829,2.235 5.829,2.737 4.165,0.697 6.923,0.05 9.851,-2.308 0.561,-0.452 1.186,-0.821 1.386,-0.821 0.2,0 0.88,0.418 1.512,0.927 1.5,1.207 2.231,1.59 4.009,2.114 1.266,0.373 1.754,0.414 3.534,0.303 3.742,-0.234 6.246,-1.024 7.564,-2.388 0.445,-0.459 0.611,-0.812 0.611,-1.289 0,-0.957 -0.517,-1.197 -1.836,-0.859 -0.8,0.207 -1.245,0.211 -2.051,0.03 -1.973,-0.442 -2.865,-1.053 -5.164,-3.521 -1.788,-1.918 -2.525,-2.66 -3.496,-2.696 z m -5.782,11.78 c -0.323,0 -0.629,0.145 -0.834,0.395 -0.204,0.249 -0.287,0.578 -0.224,0.894 l 1.079,5.391 c 0.101,0.504 0.543,0.866 1.057,0.866 0.513,0 0.956,-0.362 1.057,-0.866 l 1.078,-5.391 c 0.063,-0.316 -0.019,-0.645 -0.224,-0.894 -0.204,-0.25 -0.51,-0.395 -0.833,-0.395 z"
       style="fill:url(#_lgradient_12);fill-rule:evenodd"
       inkscape:connector-curvature="0" />
  </g>
</svg>

<?xml version="1.0" encoding="UTF-8" standalone="no"?><!-- Generator: Gravit.io --><svg xmlns="http://www.w3.org/2000/svg" xmlns:xlink="http://www.w3.org/1999/xlink" style="isolation:isolate" viewBox="0 0 48 48" width="48pt" height="48pt"><linearGradient id="_lgradient_12" x1="0.9740840104901616" y1="0.44924641719314873" x2="-0.06009946287735879" y2="0.4989079375925093" gradientTransform="matrix(47.058,0,0,46.985,0.495,0.559)" gradientUnits="userSpaceOnUse"><stop offset="0%" stop-opacity="1" style="stop-color:rgb(88,0,226)"/><stop offset="100%" stop-opacity="1" style="stop-color:rgb(255,0,230)"/></linearGradient><path d=" M 22.417 4.831 L 22.417 4.831 C 23.591 4.732 24.466 3.696 24.37 2.519 L 24.37 2.519 C 24.273 1.342 23.237 0.467 22.058 0.567 L 22.058 0.567 C 16.148 1.059 10.632 3.772 6.629 8.161 C 2.636 12.55 0.442 18.292 0.496 24.227 C 0.552 30.462 3.088 36.429 7.534 40.806 C 11.99 45.172 18.002 47.599 24.237 47.543 C 30.472 47.486 36.438 44.951 40.815 40.505 C 45.181 36.048 47.608 30.037 47.552 23.802 L 47.552 23.802 C 47.541 22.621 46.574 21.672 45.394 21.682 L 45.394 21.682 C 44.213 21.693 43.263 22.66 43.274 23.841 L 43.274 23.841 C 43.32 28.942 41.333 33.858 37.761 37.506 C 34.179 41.142 29.299 43.219 24.198 43.265 C 19.097 43.311 14.18 41.323 10.533 37.752 C 6.896 34.17 4.82 29.29 4.774 24.189 C 4.73 19.333 6.516 14.633 9.789 11.041 C 13.061 7.45 17.576 5.238 22.417 4.831 L 22.417 4.831 Z  M 40.99 14.909 L 40.99 14.909 C 41.548 15.949 42.846 16.34 43.886 15.781 L 43.886 15.781 C 44.925 15.223 45.316 13.925 44.758 12.886 L 44.758 12.886 C 42.376 8.458 38.632 4.898 34.088 2.747 L 34.088 2.747 C 33.021 2.237 31.743 2.689 31.237 3.756 L 31.237 3.756 C 30.73 4.824 31.185 6.104 32.252 6.614 L 32.252 6.614 C 35.979 8.377 39.032 11.28 40.99 14.909 L 40.99 14.909 Z  M 28.704 14.339 C 28.12 14.318 27.452 14.55 26.422 14.937 C 25.328 15.348 24.204 15.683 23.924 15.683 C 23.642 15.682 22.778 15.415 21.999 15.085 C 20.062 14.26 19.287 14.15 18.495 14.588 C 18.144 14.782 16.842 16.002 15.597 17.296 C 13.706 19.262 13.15 19.719 12.215 20.092 C 10.745 20.681 9.506 20.823 8.488 20.518 C 7.106 20.104 6.361 20.88 6.955 22.11 C 7.521 23.282 9.784 24.345 12.784 24.847 C 16.949 25.544 19.707 24.897 22.635 22.539 C 23.196 22.087 23.821 21.718 24.021 21.718 C 24.221 21.718 24.901 22.136 25.533 22.645 C 27.033 23.852 27.764 24.235 29.542 24.759 C 30.808 25.132 31.296 25.173 33.076 25.062 C 36.818 24.828 39.322 24.038 40.64 22.674 C 41.085 22.215 41.251 21.862 41.251 21.385 C 41.251 20.428 40.734 20.188 39.415 20.526 C 38.615 20.733 38.17 20.737 37.364 20.556 C 35.391 20.114 34.499 19.503 32.2 17.035 C 30.412 15.117 29.675 14.375 28.704 14.339 L 28.704 14.339 L 28.704 14.339 Z  M 22.922 26.119 C 22.599 26.119 22.293 26.264 22.088 26.514 C 21.884 26.763 21.801 27.092 21.864 27.408 L 22.943 32.799 C 23.044 33.303 23.486 33.665 24 33.665 C 24.513 33.665 24.956 33.303 25.057 32.799 L 26.135 27.408 C 26.198 27.092 26.116 26.763 25.911 26.514 C 25.707 26.264 25.401 26.119 25.078 26.119 L 22.922 26.119 L 22.922 26.119 Z " fill-rule="evenodd" fill="url(#_lgradient_12)"/></svg>
